X:1
T:Title
%%score { ( 1 4 ) | ( 2 3 ) }
L:1/8
M:4/4
K:Eb
V:1 treble nm="Grand Piano"
V:4 treble 
V:2 bass 
V:3 bass 
V:1
 z4[Q:1/4=100] [GB]3 A | G2 G2 G2 G2 | [GB]4 [FA]2 [EG]2 | [DF]2 [DF]2 [EG]2 [FA]2 | %4
 [EG]4 [GB]3 A | G2 G2 G2 G2 | [GB]4 [FA]2 [EG]2 | [DF]2 [FA]2 [EG]2 [DF]2 | E4 B4 | c2 A2 A2 c2 | %10
 [ce]4 [Bd]2 [Ac]2 | [GB]2 G2 G2 B2 | F4 [DB]3 A | G2 G2 G2 B2 | %14
[M:9/8] .B3 z [CEA]2- [CEA] [A,CF]2 |[M:4/4] [G,B,E]2 [B,EG]2 [B,DG]3 [A,DF] |[M:2/4] [G,E]4 |] %17
V:2
 z4 z2 z F | [E,B,E]2 [E,B,E]2 [E,B,E]2 [E,B,E]2 | [E,E]4 [D,B,]2 [E,B,]2 | %3
 [B,,B,]2 [B,,B,]2 [B,,B,]2 [B,,B,]2 | [E,B,]4 z2 z F | [E,B,E]2 [E,B,E]2 [E,B,E]2 [E,B,E]2 | %6
 [E,E]4 [D,B,]2 [E,B,]2 | [B,,B,]2 [B,,B,]2 [B,,B,]2 [B,,A,]2 | [E,G,]4 [E,G,E]4 | %9
 [A,E]2 [A,CE]2 [A,CE]2 [A,EA]2 | [A,E]4[K:bass] [A,E]2 [A,E]2 | %11
 [E,E]2 [E,B,E]2 [E,B,E]2 [G,B,E]2 | [B,D]4 z2 z F | [E,B,E]2 [E,B,E]2 [E,B,E]2 [E,_DE]2 | %14
[M:9/8] z2[K:treble] A- A[K:bass] A,,2- A,, A,,2 |[M:4/4] B,,2 B,,2 B,,3 B,, |[M:2/4] E,4 |] %17
V:3
 z4 [E,B,]4 | x8 | x8 | x8 | z4 [E,B,]4 | x8 | x8 | x8 | x8 | x8 | x4[K:bass] x4 | x8 | %12
 z4 [B,,B,]4 | x8 |[M:9/8] .A,,6[K:treble][K:bass] z3 |[M:4/4] x8 |[M:2/4] x4 |] %17
V:4
 x8 | x8 | x8 | x8 | x8 | x8 | x8 | x8 | x8 | x8 | x8 | x8 | x8 | x8 |[M:9/8] .[CE]6 z3 | %15
[M:4/4] x8 |[M:2/4] x4 |] %17

